assets/icons/qvision/panorama.svg

<svg xmlns="http://www.w3.org/2000/svg" height="24" viewBox="0 0 24 24" width="24"><path d="M0 0h24v24H0z" fill="none"/><path d="M23 18V6c0-1.1-.9-2-2-2H3c-1.1 0-2 .9-2 2v12c0 1.1.9 2 2 2h18c1.1 0 2-.9 2-2zM8.5 12.5l2.5 3.01L14.5 11l4.5 6H5l3.5-4.5z"/></svg>

<svg width="24" height="24" viewBox="0 0 24 24" fill="none" xmlns="http://www.w3.org/2000/svg">
<g clip-path="url(#clip0_147_3629)">
<path d="M23 18V6C23 4.9 22.1 4 21 4H3C1.9 4 1 4.9 1 6V18C1 19.1 1.9 20 3 20H21C22.1 20 23 19.1 23 18ZM8.5 12.5L11 15.51L14.5 11L19 17H5L8.5 12.5Z" fill="#323232"/>
</g>
<defs>
<clipPath id="clip0_147_3629">
<rect width="24" height="24" fill="white"/>
</clipPath>
</defs>
</svg>
